symbols/web/skip_previous/materialsymbolsrounded/skip_previous_wght300gradN25_40px.svg

<svg xmlns="http://www.w3.org/2000/svg" height="40" width="40"><path d="M11.375 28.667q-.417 0-.708-.292-.292-.292-.292-.708V12.333q0-.416.292-.708.291-.292.708-.292t.708.292q.292.292.292.708v15.334q0 .416-.292.708-.291.292-.708.292Zm16.333-1.334-9.291-6.291q-.542-.375-.542-1.042t.542-1.042l9.291-6.291q.584-.417 1.25-.084.667.334.667 1.084v12.625q0 .791-.667 1.125-.666.333-1.25-.084ZM27.625 20Zm0 4.875v-9.792L20.458 20Z"/></svg>

<svg xmlns="http://www.w3.org/2000/svg" height="40" width="40"><path d="M11.375 28.667Q10.958 28.667 10.667 28.375Q10.375 28.083 10.375 27.667V12.333Q10.375 11.917 10.667 11.625Q10.958 11.333 11.375 11.333Q11.792 11.333 12.083 11.625Q12.375 11.917 12.375 12.333V27.667Q12.375 28.083 12.083 28.375Q11.792 28.667 11.375 28.667ZM27.708 27.333 18.417 21.042Q17.875 20.667 17.875 20Q17.875 19.333 18.417 18.958L27.708 12.667Q28.292 12.25 28.958 12.583Q29.625 12.917 29.625 13.667V26.292Q29.625 27.083 28.958 27.417Q28.292 27.75 27.708 27.333ZM27.625 20ZM27.625 24.875V15.083L20.458 20Z"/></svg>
